X:1
T:Title
%%score { ( 1 3 ) | 2 }
L:1/8
M:4/4
K:Eb
V:1 treble nm="Grand Piano"
V:3 treble 
V:2 bass 
V:1
 z4 z2[Q:1/4=100] E2 | [CA]2 [CA]>[CA] [CA]2 [=B,G]>[B,F] | [CE]4 C2 E2 | A2 A>A A2 [DG]>[DA] | %4
 [EB]6 [_DE]2 | [CA]2 [CA]>[CA] [CA]2 [=B,G]>[B,F] | [CE]4 [CA]2 [Ec]2 | %7
 [EB]2 [EB]>[EB] [DB]2 D>D |[M:3/4] E6 |[M:1/4] E2 |[M:4/4] _d6 z2 | c6 z2 | %12
 [=Ec]2 [Ec]>[EB] [FA]2 [FB]>[FB] | [=Ec]6 c2 | c2 c>c f2 e>e | [F_d]4 [Fc]2 [FB]2 | %16
 A2 A>A A2 G>G |[M:3/4] [CEA]6 |] %18
V:2
 z4 z2 E,2 | [A,,E,]2 [A,,E,]>[A,,E,] [A,,E,]2 [A,,D,]>[A,,D,] | [A,,E,]4 [A,,E,A,]2 [A,C]2 | %3
 [F,A,C]2 [F,A,C]>[F,A,C] [F,A,C]2 [B,,B,]>[B,,A,] | [E,G,]6 [E,G,]2 | %5
 [A,,A,]2 [A,,E,]>[A,,E,] [A,,E,]2 [A,,D,]>[A,,D,] | [A,,E,]4 [A,,E,]2 [A,,A,]2 | %7
 [B,,G,]2 [B,,G,]>[B,,G,] [B,,F,]2 [B,,A,B,]>[B,,A,B,] |[M:3/4] [E,G,B,]6 |[M:1/4] z2 | %10
[M:4/4] z2 [E,G,]2 [E,G,]2 z2 | z2 [A,,A,]2 [A,,A,]2 [A,,A,]2 | %12
 [C,G,]2 [C,C]>[C,C] [F,C]2 [_D,F,]>[D,F,] | [C,G,]6[K:treble] [B,C=E]2 | %14
 [A,CF]2 [G,B,=E]>[G,B,E] [F,A,F]2[K:bass] [F,=A,F]>[F,A,F] | [B,,B,]4 [C,=A,]2 [_D,B,]2 | %16
 [E,CE]2 [=E,=B,D]>[E,B,D] [_E,CE]2 [E,_DE]>[E,DE] |[M:3/4] A,,6 |] %18
V:3
 x8 | x8 | x8 | x8 | x8 | x8 | x8 | x8 |[M:3/4] x6 |[M:1/4] x2 |[M:4/4] z2 E2 E2 E2 | %11
 z2 E2 E2 [Ec]2 | x8 | x8 | x8 | x8 | x8 |[M:3/4] x6 |] %18

